app/assets/images/heroicon/solid/pause-circle.svg

<svg width="24" height="24" viewBox="0 0 24 24" fill="none" xmlns="http://www.w3.org/2000/svg">
<path fill-rule="evenodd" clip-rule="evenodd" d="M2.25 12C2.25 6.61522 6.61522 2.25 12 2.25C17.3848 2.25 21.75 6.61522 21.75 12C21.75 17.3848 17.3848 21.75 12 21.75C6.61522 21.75 2.25 17.3848 2.25 12ZM9 8.25C8.58579 8.25 8.25 8.58579 8.25 9V15C8.25 15.4142 8.58579 15.75 9 15.75H9.75C10.1642 15.75 10.5 15.4142 10.5 15V9C10.5 8.58579 10.1642 8.25 9.75 8.25H9ZM14.25 8.25C13.8358 8.25 13.5 8.58579 13.5 9V15C13.5 15.4142 13.8358 15.75 14.25 15.75H15C15.4142 15.75 15.75 15.4142 15.75 15V9C15.75 8.58579 15.4142 8.25 15 8.25H14.25Z" fill="#0F172A"/>
</svg>

<svg xmlns="http://www.w3.org/2000/svg" viewBox="0 0 24 24" fill="currentColor" aria-hidden="true">
  <path fill-rule="evenodd" d="M2.25 12c0-5.385 4.365-9.75 9.75-9.75s9.75 4.365 9.75 9.75-4.365 9.75-9.75 9.75S2.25 17.385 2.25 12zM9 8.25a.75.75 0 00-.75.75v6c0 .414.336.75.75.75h.75a.75.75 0 00.75-.75V9a.75.75 0 00-.75-.75H9zm5.25 0a.75.75 0 00-.75.75v6c0 .414.336.75.75.75H15a.75.75 0 00.75-.75V9a.75.75 0 00-.75-.75h-.75z" clip-rule="evenodd"/>
</svg>
